flags/4x3/qa.svg

<svg xmlns="http://www.w3.org/2000/svg" height="480" width="640" version="1"><defs><clipPath id="a"><path fill-opacity=".67" d="M-27.334 0h682.67v512h-682.67z"/></clipPath></defs><g fill-rule="evenodd" clip-path="url(#a)" transform="translate(25.626) scale(.9375)" stroke-width="1pt"><path fill="#660057" d="M-70 0h768v512H-70z"/><path d="M86.533 511.76l-156.53.24L-70 0 85.8.081l100.53 32.327-99.795 31.51 99.791 32.49-99.791 31.51 99.791 32.49-99.791 31.51 99.791 32.49-99.791 31.51 99.791 32.49-99.791 31.511 99.791 32.49-99.791 31.511 99.791 32.49-99.791 31.51 99.791 32.49-99.791 31.51" fill="#fff"/></g></svg>

<svg xmlns="http://www.w3.org/2000/svg" height="480" width="640" version="1"><defs><clipPath id="a"><path fill-opacity=".7" d="M-27.3 0h682.6v512H-27.3z"/></clipPath></defs><g fill-rule="evenodd" clip-path="url(#a)" transform="translate(25.6) scale(.9375)" stroke-width="1pt"><path fill="#660057" d="M-70 0h768v512H-70z"/><path d="M86.5 511.8L-70 512V0H85.8l100.5 32.4L86.5 64l99.8 32.5L86.5 128l99.8 32.5L86.5 192l99.8 32.5L86.5 256l99.8 32.5L86.5 320l99.8 32.5L86.5 384l99.8 32.5L86.5 448l99.8 32.5L86.5 512" fill="#fff"/></g></svg>
